X:1
T:James Gibb editions
T:Tristis est anima mea - Martini
T:#
%%score [ 1 2 3 ]
L:1/8
Q:1/4=54
M:4/4
K:C
V:1 treble-8 nm="Tenor I" snm="T I"
V:2 treble-8 nm="Tenor II" snm="T II"
V:3 bass nm="Bass" snm="B"
V:1
"^Tristis est anima mea""^largo""^Giovanni Battista Martini\n(1706-84)"!p! B4"^," B2 B2 | %1
w: Tri- stis est|
!<(! c2 e!<)!e!>(! (e2 d2)!>)! |"^," e2!mf! e4 d2- | d2 c2 (c2 B2) |"^," c4!f! e3 e | %5
w: a- ni- ma me\- *|a us- que|* ad mor\- *|tem, su- sti-|
 f2 f2"^," d2 d2 |!>(! e3 d c4!>)! |[M:4/4][K:treble-8] (d2 e2) d2 d2 | z4!f! e2 d2 | e2 dc d2 d2 | %10
w: ne- te hic et|vi- gi- la-|te * me- cum.|Nunc vi-|de- bi- tis tur- bam,|
 z4!mf! c2 B2 | c2 BA B4 | z2!f! ee c>c f2 |"^," d2!mf! ee d>d d2 |"^," c4!p! e4 | dcdB c4 | %16
w: quae cir-|cum- da- bit me,|quae cir- cum- da- bit|me, quae cir- cum- da- bit|me. Vos|fu- gam ca- pi- e-|
"^," B2 !>!e3 A !>!d2- | d2 c2 (c2 B2) |"^," c2!mf! e2 !>!e2 (dc) | c2 B2 z2!p! ee | %20
w: tis, fu- gam ca\-|* pi- e\- *|tis, et e- go *|va- dam im- mo-|
 !>!e2"^," d"^rit."[Q:1/4=53]c[Q:1/4=52] (B2[Q:1/4=50] c2 | %21
w: la- ri pro vo\- *|
[Q:1/4=47]!>(! B4)!>)![Q:1/4=46] !fermata!A4 |] %22
w: * bis.|
V:2
!p! ^G4"^," G2 G2 |!<(! A2 c!<)!c!>(! A4!>)! |"^," ^G4!mf! A4 | =G2 G2 F4 |"^," E4!f! c3 c | %5
w: Tri- stis est|a- ni- ma me-|a us-|que ad mor-|tem, su- sti-|
 d2 d2"^," B2 B2 |!>(! c3 B A4!>)! |[M:4/4][K:treble-8] (B2 c2) B2 B2 | z4!f! c2 B2 | c2 BA B2 B2 | %10
w: ne- te hic et|vi- gi- la-|te * me- cum.|Nunc vi-|de- bi- tis tur- bam,|
 z4!mf! A2 ^G2 | A2 ^G^F G4 | z2!f! cc A>A d2 |"^," B2!mf! cc c>B B2 | c4 z4 | z8 | z4!p! A4 | %17
w: quae cir-|cum- da- bit me,|quae cir- cum- da- bit|me, quae cir- cum- da- bit|me.||Vos|
 GFGE F4 |"^," E2!mf! c2 !>!c2 (BA) | A2 ^G2 z2!p! cc | !>!c2"^," B"^rit."A (^G2 A2- | %21
w: fu- gam ca- pi- e-|tis, et e- go *|va- dam im- mo-|la- ri pro vo\- *|
!>(! A2 ^G2)!>)! !fermata!A4 |] %22
w: * * bis.|
V:3
!p! E,4"^," E,2 E,2 |!<(! C,2 A,,!<)!A,,!>(! F,4!>)! |"^," E,4!mf! F,4 | E,2 E,2 D,4 | C,4 z4 | %5
w: Tri- stis est|a- ni- ma me-|a us-|que ad mor-|tem,|
!f! F,3 F, G,2 G,2 |"^," E,2 E,2!>(! F,3 E, |[M:4/4] D,2!>)! C,2 G,2 G,2 |!f! C2 B,2 C2 G,G, | %9
w: su- sti- ne- te|hic et vi- gì-|la- te me- cum.|Nunc vi- de- bi- tis|
 C,4 G,4 |!mf! A,2 ^G,2 A,2 E,E, | (A,,4 E,4) | z2!f! C,C, F,>F, D,2 | %13
w: tur- bam,|quae cir- cum- da- bit|me, *|quae cir- cum- da- bit|
"^," G,2!mf! C,C, G,>G, G,,2 | C,4 z4 | z4!p! A,4 | G,F,G,E, F,4 | E,2 E,C, D,4 | %18
w: me, quae cir- cum- da- bit|me.|Vos|fu- gam ca- pi- e-|tis, ca- pi- e-|
"^," C,2!mf! C,2 !>!D,3 D, | E,2"^," E,2!p! C,4 | D,4"^rit." E,2"^," A,,A,, | %21
w: tis, et e- go|va- dam im-|mo- la- ri pro|
!>(! E,4!>)! !fermata!A,,4 |] %22
w: vo- bis.|

